Yaru++/mimetypes/16/image-svg+xml.svg

<svg id="svg53" height="16" viewBox="0 0 4.2331251 4.233125" width="16" xmlns="http://www.w3.org/2000/svg">
  <g id="g1212" enable-background="new" fill="#808080" transform="matrix(.21746224 0 0 .21746224 -72.717565 -16.258914)">
    <g transform="matrix(1.2166265 0 0 1.2166265 334.39169 74.766608)">
      <path id="path863" d="m8.0097656.38085938a3.7568534 3.6042908 0 0 0 -3.7578125 3.60546872 3.7568534 3.6042908 0 0 0 3.3769531 3.5859375l3.1035158-6.0683594a3.7568534 3.6042908 0 0 0 -2.7226564-1.12304682z" opacity=".3" stroke="#808080" stroke-linecap="round" stroke-linejoin="round" stroke-width=".25"/>
      <path id="ellipse865" d="m7.3261719 8.2910156-3.1054688 6.2441404a3.7568534 3.6042908 0 0 0 2.4921875.91211 3.7568534 3.6042908 0 0 0 3.7558594-3.605469 3.7568534 3.6042908 0 0 0 -3.1425781-3.5507814z" opacity=".3" stroke="#808080" stroke-linecap="round" stroke-linejoin="round" stroke-width=".25"/>
      <path id="path1198" d="m1.7324219 4.3007812c-.6760498 0-1.2324219.5583212-1.2324219 1.234375 0 .676054.5563721 1.2324219 1.2324219 1.2324219.3650682 0 .6874222-.1699345.9140625-.4257812l10.1874996 4.0761721c-.000666.016462-.003906.032215-.003906.048828 0 .676054.556372 1.232422 1.232422 1.232422s1.232422-.556368 1.232422-1.232422c0-.6760541-.556372-1.2343751-1.232422-1.2343751-.365068 0-.687422.1699345-.914062.4257812l-10.1875005-4.0742187c.0006807-.0166422.0058594-.032032.0058594-.0488282 0-.6760538-.5583253-1.2343749-1.234375-1.234375zm.0078125.7246094a.5.5 0 0 1 .5.5.5.5 0 0 1 -.5.5.5.5 0 0 1 -.5-.5.5.5 0 0 1 .5-.5zm12.3222656 4.921875a.5.5 0 0 1 .035156 0 .5.5 0 0 1 .5.5000004.5.5 0 0 1 -.5.5.5.5 0 0 1 -.5-.5.5.5 0 0 1 .464844-.5000004z" fill-rule="evenodd" opacity=".75"/>
    </g>
    <path id="path1200" d="m342.55664 74.869141c-1.45991.295457-2.57063 1.21919-3.13476 2.417968-1.12827 2.397557-.0625 5.832159 3.86718 7.666016 3.56259 1.662542 4.01386 4.434324 3.01953 6.3125-.49716.939088-1.37338 1.650366-2.49023 1.884766s-2.497.003-4.0332-1.060547l-.57032.820312c1.7138 1.186475 3.39615 1.517553 4.81055 1.220703s2.53818-1.210572 3.16602-2.396484c1.25567-2.371824.45694-5.850042-3.48047-7.6875-3.57031-1.666143-4.25455-4.481541-3.38282-6.333984.43587-.926222 1.26265-1.627489 2.42774-1.863282 1.16509-.235792 2.69119.003 4.48633 1.080079l.51562-.859376c-1.95486-1.172918-3.74126-1.496629-5.20117-1.201171z" fill-rule="evenodd"/>
    <path id="rect1202" d="m9.5410156.19140625v.41210937 2.05468748h2.4667964v-2.46679685zm-3.2871094 6.57617185v.4101563 2.0546875h2.4648438v-2.4648438zm-3.2871093 6.5761719v.410156 2.054688h2.4648437v-2.464844z" transform="matrix(1.2166265 0 0 1.2166265 334.39169 74.766608)"/>
  </g>
</svg>

<?xml version="1.0" encoding="UTF-8" standalone="no"?>
<svg
   xmlns:dc="http://purl.org/dc/elements/1.1/"
   xmlns:cc="http://creativecommons.org/ns#"
   xmlns:rdf="http://www.w3.org/1999/02/22-rdf-syntax-ns#"
   xmlns:svg="http://www.w3.org/2000/svg"
   xmlns="http://www.w3.org/2000/svg"
   xmlns:sodipodi="http://sodipodi.sourceforge.net/DTD/sodipodi-0.dtd"
   xmlns:inkscape="http://www.inkscape.org/namespaces/inkscape"
   width="16"
   height="16"
   version="1.1"
   viewBox="0 0 4.2331251 4.233125"
   id="svg53"
   sodipodi:docname="image-svg+xml.svg"
   inkscape:version="0.92.4 (5da689c313, 2019-01-14)">
  <metadata
     id="metadata57">
    <rdf:RDF>
      <cc:Work
         rdf:about="">
        <dc:format>image/svg+xml</dc:format>
        <dc:type
           rdf:resource="http://purl.org/dc/dcmitype/StillImage" />
        <dc:title />
      </cc:Work>
    </rdf:RDF>
  </metadata>
  <sodipodi:namedview
     pagecolor="#ffffff"
     bordercolor="#666666"
     borderopacity="1"
     objecttolerance="10"
     gridtolerance="10"
     guidetolerance="10"
     inkscape:pageopacity="0"
     inkscape:pageshadow="2"
     inkscape:window-width="1920"
     inkscape:window-height="1016"
     id="namedview55"
     showgrid="false"
     inkscape:zoom="52.4375"
     inkscape:cx="3.7759237"
     inkscape:cy="8"
     inkscape:window-x="0"
     inkscape:window-y="27"
     inkscape:window-maximized="1"
     inkscape:current-layer="g1212" />
  <defs
     id="defs17">
    <linearGradient
       id="linearGradient4226"
       x1="529.65503"
       x2="-35.310001"
       y1="401.58401"
       y2="119.093"
       gradientTransform="matrix(0,-0.11988932,0.11988589,0,0.36278002,292.5483)"
       gradientUnits="userSpaceOnUse">
      <stop
         style="stop-color:#f2f2f2"
         offset="0"
         id="stop2" />
      <stop
         style="stop-color:#f9f9f9"
         offset="1"
         id="stop4" />
    </linearGradient>
    <linearGradient
       id="linearGradient4358"
       x1="88"
       x2="488"
       y1="88"
       y2="488"
       gradientUnits="userSpaceOnUse">
      <stop
         style="stop-color:#000000;stop-opacity:.58823532"
         offset="0"
         id="stop7" />
      <stop
         style="stop-color:#000000;stop-opacity:0"
         offset=".88"
         id="stop9" />
      <stop
         style="stop-color:#000000"
         offset="1"
         id="stop11" />
    </linearGradient>
    <filter
       id="filter4346"
       width="1.026"
       height="1.022"
       x="-0.0099999998"
       y="-0.0099999998"
       style="color-interpolation-filters:sRGB">
      <feGaussianBlur
         stdDeviation="2.12"
         id="feGaussianBlur14" />
    </filter>
    <clipPath
       clipPathUnits="userSpaceOnUse"
       id="clipPath983">
      <path
         sodipodi:nodetypes="scccssscsss"
         inkscape:connector-curvature="0"
         id="path985"
         d="m 325.09646,237 c -2.80769,0 -3.10979,0.28839 -3.09603,3.10176 V 244 v 3.89824 c -0.0138,2.81337 0.28834,3.10176 3.09603,3.10176 h 5.8075 C 333.71166,251 334,250.71165 334,247.89824 V 244 240.10176 C 334,237.28836 333.71165,237 330.90396,237 Z"
         style="color:#000000;display:inline;overflow:visible;visibility:visible;opacity:1;fill:#46a926;fill-opacity:1;fill-rule:nonzero;stroke:none;stroke-width:2;stroke-miterlimit:4;stroke-dasharray:none;stroke-opacity:1;marker:none;enable-background:accumulate" />
    </clipPath>
  </defs>
  <g
     style="display:inline;enable-background:new"
     transform="matrix(0.21746224,0,0,0.21746224,-72.717565,-16.258914)"
     id="g1212">
    <path
       style="opacity:0.3;fill:#808080;fill-opacity:1;stroke:#808080;stroke-width:0.25;stroke-linecap:round;stroke-linejoin:round;stroke-miterlimit:4;stroke-dasharray:none;stroke-dashoffset:0;stroke-opacity:1"
       d="M 8.0097656 0.38085938 A 3.7568534 3.6042908 0 0 0 4.2519531 3.9863281 A 3.7568534 3.6042908 0 0 0 7.6289062 7.5722656 L 10.732422 1.5039062 A 3.7568534 3.6042908 0 0 0 8.0097656 0.38085938 z "
       transform="matrix(1.2166265,0,0,1.2166265,334.39169,74.766608)"
       id="path863" />
    <path
       style="opacity:0.3;fill:#808080;fill-opacity:1;stroke:#808080;stroke-width:0.25;stroke-linecap:round;stroke-linejoin:round;stroke-miterlimit:4;stroke-dasharray:none;stroke-dashoffset:0;stroke-opacity:1"
       d="M 7.3261719 8.2910156 L 4.2207031 14.535156 A 3.7568534 3.6042908 0 0 0 6.7128906 15.447266 A 3.7568534 3.6042908 0 0 0 10.46875 11.841797 A 3.7568534 3.6042908 0 0 0 7.3261719 8.2910156 z "
       transform="matrix(1.2166265,0,0,1.2166265,334.39169,74.766608)"
       id="ellipse865" />
    <path
       style="color:#000000;font-style:normal;font-variant:normal;font-weight:normal;font-stretch:normal;font-size:medium;line-height:normal;font-family:sans-serif;font-variant-ligatures:normal;font-variant-position:normal;font-variant-caps:normal;font-variant-numeric:normal;font-variant-alternates:normal;font-feature-settings:normal;text-indent:0;text-align:start;text-decoration:none;text-decoration-line:none;text-decoration-style:solid;text-decoration-color:#000000;letter-spacing:normal;word-spacing:normal;text-transform:none;writing-mode:lr-tb;direction:ltr;text-orientation:mixed;dominant-baseline:auto;baseline-shift:baseline;text-anchor:start;white-space:normal;shape-padding:0;clip-rule:nonzero;display:inline;overflow:visible;visibility:visible;opacity:0.75;isolation:auto;mix-blend-mode:normal;color-interpolation:sRGB;color-interpolation-filters:linearRGB;solid-color:#000000;solid-opacity:1;vector-effect:none;fill:#808080;fill-opacity:1;fill-rule:evenodd;stroke:none;stroke-width:0.82194495;stroke-linecap:butt;stroke-linejoin:miter;stroke-miterlimit:4;stroke-dasharray:none;stroke-dashoffset:0;stroke-opacity:1;color-rendering:auto;image-rendering:auto;shape-rendering:auto;text-rendering:auto;enable-background:accumulate"
       d="M 1.7324219 4.3007812 C 1.0563721 4.3007812 0.5 4.8591024 0.5 5.5351562 C 0.5 6.2112102 1.0563721 6.7675781 1.7324219 6.7675781 C 2.0974901 6.7675781 2.4198441 6.5976436 2.6464844 6.3417969 L 12.833984 10.417969 C 12.833318 10.434431 12.830078 10.450184 12.830078 10.466797 C 12.830078 11.142851 13.38645 11.699219 14.0625 11.699219 C 14.73855 11.699219 15.294922 11.142851 15.294922 10.466797 C 15.294922 9.7907429 14.73855 9.2324219 14.0625 9.2324219 C 13.697432 9.2324219 13.375078 9.4023564 13.148438 9.6582031 L 2.9609375 5.5839844 C 2.9616182 5.5673422 2.9667969 5.5519524 2.9667969 5.5351562 C 2.9667969 4.8591024 2.4084716 4.3007813 1.7324219 4.3007812 z M 1.7402344 5.0253906 A 0.5 0.5 0 0 1 2.2402344 5.5253906 A 0.5 0.5 0 0 1 1.7402344 6.0253906 A 0.5 0.5 0 0 1 1.2402344 5.5253906 A 0.5 0.5 0 0 1 1.7402344 5.0253906 z M 14.0625 9.9472656 A 0.5 0.5 0 0 1 14.097656 9.9472656 A 0.5 0.5 0 0 1 14.597656 10.447266 A 0.5 0.5 0 0 1 14.097656 10.947266 A 0.5 0.5 0 0 1 13.597656 10.447266 A 0.5 0.5 0 0 1 14.0625 9.9472656 z "
       transform="matrix(1.2166265,0,0,1.2166265,334.39169,74.766608)"
       id="path1198" />
    <path
       style="color:#000000;font-style:normal;font-variant:normal;font-weight:normal;font-stretch:normal;font-size:medium;line-height:normal;font-family:sans-serif;font-variant-ligatures:normal;font-variant-position:normal;font-variant-caps:normal;font-variant-numeric:normal;font-variant-alternates:normal;font-feature-settings:normal;text-indent:0;text-align:start;text-decoration:none;text-decoration-line:none;text-decoration-style:solid;text-decoration-color:#000000;letter-spacing:normal;word-spacing:normal;text-transform:none;writing-mode:lr-tb;direction:ltr;text-orientation:mixed;dominant-baseline:auto;baseline-shift:baseline;text-anchor:start;white-space:normal;shape-padding:0;clip-rule:nonzero;display:inline;overflow:visible;visibility:visible;opacity:1;isolation:auto;mix-blend-mode:normal;color-interpolation:sRGB;color-interpolation-filters:linearRGB;solid-color:#000000;solid-opacity:1;vector-effect:none;fill:#808080;fill-opacity:1;fill-rule:evenodd;stroke:none;stroke-width:1;stroke-linecap:butt;stroke-linejoin:miter;stroke-miterlimit:4;stroke-dasharray:none;stroke-dashoffset:0;stroke-opacity:1;color-rendering:auto;image-rendering:auto;shape-rendering:auto;text-rendering:auto;enable-background:accumulate"
       d="m 342.55664,74.869141 c -1.45991,0.295457 -2.57063,1.21919 -3.13476,2.417968 -1.12827,2.397557 -0.0625,5.832159 3.86718,7.666016 3.56259,1.662542 4.01386,4.434324 3.01953,6.3125 -0.49716,0.939088 -1.37338,1.650366 -2.49023,1.884766 -1.11685,0.2344 -2.497,0.003 -4.0332,-1.060547 l -0.57032,0.820312 c 1.7138,1.186475 3.39615,1.517553 4.81055,1.220703 1.4144,-0.29685 2.53818,-1.210572 3.16602,-2.396484 1.25567,-2.371824 0.45694,-5.850042 -3.48047,-7.6875 -3.57031,-1.666143 -4.25455,-4.481541 -3.38282,-6.333984 0.43587,-0.926222 1.26265,-1.627489 2.42774,-1.863282 1.16509,-0.235792 2.69119,0.003 4.48633,1.080079 l 0.51562,-0.859376 c -1.95486,-1.172918 -3.74126,-1.496629 -5.20117,-1.201171 z"
       id="path1200"
       inkscape:connector-curvature="0" />
    <g
       id="g884">
      <path
         style="color:#000000;font-style:normal;font-variant:normal;font-weight:normal;font-stretch:normal;font-size:medium;line-height:normal;font-family:sans-serif;font-variant-ligatures:normal;font-variant-position:normal;font-variant-caps:normal;font-variant-numeric:normal;font-variant-alternates:normal;font-feature-settings:normal;text-indent:0;text-align:start;text-decoration:none;text-decoration-line:none;text-decoration-style:solid;text-decoration-color:#000000;letter-spacing:normal;word-spacing:normal;text-transform:none;writing-mode:lr-tb;direction:ltr;text-orientation:mixed;dominant-baseline:auto;baseline-shift:baseline;text-anchor:start;white-space:normal;shape-padding:0;clip-rule:nonzero;display:inline;overflow:visible;visibility:visible;opacity:1;isolation:auto;mix-blend-mode:normal;color-interpolation:sRGB;color-interpolation-filters:linearRGB;solid-color:#000000;solid-opacity:1;vector-effect:none;fill:#808080;fill-opacity:1;fill-rule:nonzero;stroke:none;stroke-width:0.82194495;stroke-linecap:butt;stroke-linejoin:miter;stroke-miterlimit:4;stroke-dasharray:none;stroke-dashoffset:1;stroke-opacity:1;color-rendering:auto;image-rendering:auto;shape-rendering:auto;text-rendering:auto;enable-background:accumulate"
         d="M 9.5410156 0.19140625 L 9.5410156 0.60351562 L 9.5410156 2.6582031 L 12.007812 2.6582031 L 12.007812 0.19140625 L 9.5410156 0.19140625 z M 6.2539062 6.7675781 L 6.2539062 7.1777344 L 6.2539062 9.2324219 L 8.71875 9.2324219 L 8.71875 6.7675781 L 6.2539062 6.7675781 z M 2.9667969 13.34375 L 2.9667969 13.753906 L 2.9667969 15.808594 L 5.4316406 15.808594 L 5.4316406 13.34375 L 2.9667969 13.34375 z "
         transform="matrix(1.2166265,0,0,1.2166265,334.39169,74.766608)"
         id="rect1202" />
    </g>
  </g>
</svg>
